packages/paste-icons/svg/Strikethrough.svg

<svg width="20" height="20" viewBox="0 0 20 20" fill="none" xmlns="http://www.w3.org/2000/svg">
<path d="M9.51438 4C11.0042 4 12.075 4.7219 12.6135 6.09384C12.7396 6.41515 12.5814 6.77787 12.2601 6.904C11.9388 7.03012 11.5761 6.8719 11.4499 6.55059C11.1002 5.65957 10.4927 5.25 9.51438 5.25C8.51741 5.25 7.64885 5.83671 7.64885 6.92857C7.64885 7.61303 7.94063 7.9949 8.86302 8.44608L9.1943 8.59955C9.25356 8.62573 9.31488 8.65225 9.37833 8.67917L9.9364 8.90654C10.9122 9.29656 11.5329 9.60006 11.9883 9.99501L14.375 9.99599C14.7202 9.99599 15 10.2758 15 10.621C15 10.9348 14.7687 11.1946 14.4674 11.2392L14.375 11.246L12.8571 11.2454C13.0797 11.814 13.1568 12.451 13.0707 13.0547C12.9541 13.8725 12.5463 14.6207 11.9221 15.1619C11.298 15.7028 10.4996 16.0005 9.67391 16.0001C8.64046 16.0001 7.64929 15.5895 6.9185 14.8586C6.46977 14.4099 6.13861 13.8597 5.95168 13.2564C5.84953 12.9266 6.03401 12.5765 6.36373 12.4744C6.69345 12.3723 7.04355 12.5567 7.14569 12.8864C7.27267 13.2963 7.49757 13.67 7.80239 13.9748C8.29879 14.4712 8.97201 14.7501 9.67419 14.7501C10.1992 14.7503 10.7067 14.5611 11.1033 14.2174C11.5 13.8735 11.7592 13.398 11.8332 12.8783C11.9087 12.349 11.7863 11.7671 11.5066 11.334L11.445 11.245L5.625 11.246C5.27982 11.246 5 10.9662 5 10.621C5 10.3072 5.23126 10.0474 5.53264 10.0028L5.625 9.99599L9.292 9.995L9.08371 9.91061C7.14919 9.11321 6.39885 8.45512 6.39885 6.92857C6.39885 5.01887 7.90715 4 9.51438 4Z" fill="#606B85"/>
</svg>

<svg xmlns="http://www.w3.org/2000/svg" width="20" height="20" fill="none" viewBox="0 0 20 20">
  <path fill="#606B85" d="M9.514 4c1.49 0 2.561.722 3.1 2.094a.625.625 0 0 1-1.164.457c-.35-.891-.957-1.301-1.936-1.301-.997 0-1.865.587-1.865 1.679 0 .684.292 1.066 1.214 1.517l.331.154.184.08.558.227c.976.39 1.597.693 2.052 1.088l2.387.001a.625.625 0 0 1 .092 1.243l-.092.007h-1.518c.223.568.3 1.205.214 1.809A3.43 3.43 0 0 1 9.674 16a3.896 3.896 0 0 1-3.722-2.744.625.625 0 1 1 1.194-.37 2.646 2.646 0 0 0 2.528 1.864 2.181 2.181 0 0 0 2.16-1.872 2.33 2.33 0 0 0-.327-1.544l-.062-.089-5.82.001a.625.625 0 0 1-.092-1.243l.092-.007 3.667-.001-.208-.084c-1.935-.798-2.685-1.456-2.685-2.982C6.399 5.019 7.907 4 9.514 4Z"/>
</svg>
